src/components/Icon/utils/svgsOptimized/blockquote.svg

<svg width="24" height="24" viewBox="0 0 24 24"  xmlns="http://www.w3.org/2000/svg">
<path d="M7.2 6.3V17.7C7.2 17.8657 7.06569 18 6.9 18H6.3C6.13431 18 6 17.8657 6 17.7V6.3C6 6.13431 6.13431 6 6.3 6H6.9C7.06569 6 7.2 6.13431 7.2 6.3Z" />
<path d="M9.89999 7.20001H17.7C17.8657 7.20001 18 7.33433 18 7.50001V8.10001C18 8.2657 17.8657 8.40001 17.7 8.40001H9.89999C9.73431 8.40001 9.59999 8.2657 9.59999 8.10001V7.50001C9.59999 7.33433 9.73431 7.20001 9.89999 7.20001Z" />
<path d="M17.7 12.8H9.89999C9.73431 12.8 9.59999 12.9343 9.59999 13.1V13.7C9.59999 13.8657 9.73431 14 9.89999 14H17.7C17.8657 14 18 13.8657 18 13.7V13.1C18 12.9343 17.8657 12.8 17.7 12.8Z" />
<path d="M14.1 15.6H9.89999C9.73431 15.6 9.59999 15.7343 9.59999 15.9V16.5C9.59999 16.6657 9.73431 16.8 9.89999 16.8H14.1C14.2657 16.8 14.4 16.6657 14.4 16.5V15.9C14.4 15.7343 14.2657 15.6 14.1 15.6Z" />
<path d="M15.3 10H9.89999C9.73431 10 9.59999 10.1343 9.59999 10.3V10.9C9.59999 11.0657 9.73431 11.2 9.89999 11.2H15.3C15.4657 11.2 15.6 11.0657 15.6 10.9V10.3C15.6 10.1343 15.4657 10 15.3 10Z" />
</svg>

<?xml version="1.0" encoding="utf-8"?><svg width="24" height="24" xmlns="http://www.w3.org/2000/svg" viewBox="0 0 24 24"><path d="M7.2 6.3v11.4a.3.3 0 0 1-.3.3h-.6a.3.3 0 0 1-.3-.3V6.3a.3.3 0 0 1 .3-.3h.6a.3.3 0 0 1 .3.3Zm2.7.9h7.8a.3.3 0 0 1 .3.3v.6a.3.3 0 0 1-.3.3H9.9a.3.3 0 0 1-.3-.3v-.6a.3.3 0 0 1 .3-.3Zm7.8 5.6H9.9a.3.3 0 0 0-.3.3v.6a.3.3 0 0 0 .3.3h7.8a.3.3 0 0 0 .3-.3v-.6a.3.3 0 0 0-.3-.3Zm-3.6 2.8H9.9a.3.3 0 0 0-.3.3v.6a.3.3 0 0 0 .3.3h4.2a.3.3 0 0 0 .3-.3v-.6a.3.3 0 0 0-.3-.3Zm1.2-5.6H9.9a.3.3 0 0 0-.3.3v.6a.3.3 0 0 0 .3.3h5.4a.3.3 0 0 0 .3-.3v-.6a.3.3 0 0 0-.3-.3Z"/></svg>
